icons/1_Primary/Mailfence.svg

<svg width="1024" height="1024" viewBox="0 0 1024 1024" fill="none" xmlns="http://www.w3.org/2000/svg">
<g clip-path="url(#clip0_2_2739)">
<path d="M512 1024C794.77 1024 1024 794.77 1024 512C1024 229.23 794.77 0 512 0C229.23 0 0 229.23 0 512C0 794.77 229.23 1024 512 1024Z" fill="#728DBE"/>
<path d="M287.24 341.72C272.76 344.8 261.19 356.55 256.96 372.39L256 376V647.47L257 651.47C258.509 656.765 260.823 661.797 263.86 666.39C267.135 670.701 271.123 674.421 275.65 677.39C281.06 680.78 289.34 683.29 293.78 682.89L295.45 682.76L365.15 563.29C403.48 497.59 435.6 442.76 436.48 441.48C440.2 436.6 445.427 433.085 451.35 431.48C455.697 430.644 460.163 430.644 464.51 431.48C471.24 433.24 478.46 439 481.36 444.95C484.37 451.118 484.89 458.209 482.81 464.75C482.19 466.69 461.38 502.64 419 575.2L356.16 682.67L432.68 682.8H585.82L662.34 682.67L633.61 636.6L604.83 590.53L619.44 565.23C627.44 551.32 634.09 540.02 634.23 540.1C634.37 540.18 654.69 572.36 679.34 611.61L724.21 683L729.71 682.78C736.35 682.47 739.13 681.78 744.89 678.95C754.428 674.156 761.744 665.862 765.31 655.8C768.17 647.92 767.99 657.74 767.99 511.73C767.99 365.72 768.17 375.53 765.35 367.73C759.63 351.93 744.05 340.49 729.05 341.06L725.66 341.19L656 460.67C617.67 526.37 585.42 581.38 584.32 582.87C581.74 586.274 578.353 588.982 574.466 590.75C570.578 592.518 566.311 593.292 562.05 593C555.23 592.69 550.12 590.36 545.11 585.34C541.339 581.643 538.822 576.856 537.914 571.654C537.007 566.452 537.754 561.096 540.05 556.34C540.97 554.45 569.45 505.34 603.33 447.08L665 341.19L588.43 341.06H435.34L358.77 341.19L387.77 387.26L416.77 433.33L402 458.64C388.27 482.09 387.13 483.94 386.51 483.19C386.16 482.71 365.74 450.54 341.18 411.68L296.48 341H293.4C291.329 341.046 289.266 341.288 287.24 341.72ZM549.51 431.4C553.564 432.514 557.341 434.463 560.6 437.12C563.95 440.287 566.488 444.215 568 448.57C569.677 453.706 569.753 459.23 568.22 464.41C567.52 466.61 557.88 483.51 533.72 524.87C496 589.51 498 586.39 490.72 590C485.4 592.6 482.27 593.3 476.9 593C472.418 592.951 468.046 591.607 464.31 589.13C453.48 582.13 449.08 568.01 454.31 557.05C455.01 555.55 470.46 528.84 488.68 497.69C520.28 443.69 521.9 440.97 524.9 438.02C528.016 434.862 531.922 432.597 536.21 431.46C540.598 430.586 545.114 430.566 549.51 431.4Z" fill="white"/>
</g>
<defs>
<clipPath id="clip0_2_2739">
<rect width="1024" height="1024" fill="white"/>
</clipPath>
</defs>
</svg>

<svg xmlns="http://www.w3.org/2000/svg" viewBox="0 0 1024 1024">
   <circle cx="512" cy="512" r="512" style="fill:#357dbe"/>
   <path d="M287.24 341.72c-14.48 3.08-26.05 14.83-30.28 30.67L256 376v271.47l1 4a53.78 53.78 0 0 0 6.86 14.92 47.57 47.57 0 0 0 11.79 11c5.41 3.39 13.69 5.9 18.13 5.5l1.67-.13 69.7-119.47c38.33-65.7 70.45-120.53 71.33-121.81a27.86 27.86 0 0 1 14.87-10 34.82 34.82 0 0 1 13.16 0c6.73 1.76 13.95 7.52 16.85 13.47a26.7 26.7 0 0 1 1.45 19.8c-.62 1.94-21.43 37.89-63.81 110.45l-62.84 107.47 76.52.13h153.14l76.52-.13-28.73-46.07-28.78-46.07 14.61-25.3c8-13.91 14.65-25.21 14.79-25.13s20.46 32.26 45.11 71.51L724.21 683l5.5-.22c6.64-.31 9.42-1 15.18-3.83a41.38 41.38 0 0 0 20.42-23.15c2.86-7.88 2.68 1.94 2.68-144.07s.18-136.2-2.64-144c-5.72-15.8-21.3-27.24-36.3-26.67l-3.39.13L656 460.67c-38.33 65.7-70.58 120.71-71.68 122.2A25.74 25.74 0 0 1 562.05 593c-6.82-.31-11.93-2.64-16.94-7.66a25.24 25.24 0 0 1-5.06-29c.92-1.89 29.4-51 63.28-109.26L665 341.19l-76.57-.13H435.34l-76.57.13 29 46.07 29 46.07L402 458.64c-13.73 23.45-14.87 25.3-15.49 24.55-.35-.48-20.77-32.65-45.33-71.51L296.48 341h-3.08a33.06 33.06 0 0 0-6.16.72Zm262.27 89.68a30.22 30.22 0 0 1 11.09 5.72 28.71 28.71 0 0 1 7.4 11.45 26.66 26.66 0 0 1 .22 15.84c-.7 2.2-10.34 19.1-34.5 60.46-37.72 64.64-35.72 61.52-43 65.13-5.32 2.6-8.45 3.3-13.82 3a23.25 23.25 0 0 1-12.59-3.87c-10.83-7-15.23-21.12-10-32.08.7-1.5 16.15-28.21 34.37-59.36 31.6-54 33.22-56.72 36.22-59.67a24.83 24.83 0 0 1 11.31-6.56 34.84 34.84 0 0 1 13.3-.06Z" style="fill:#fff"/>
</svg>
